Sources/FrostedUI/Resources/Icons.xcassets/arrowUpRightFromBracket20.imageset/arrow-up-right-from-bracket-20.svg

<svg width="20" height="20" viewBox="0 0 20 20" fill="none" xmlns="http://www.w3.org/2000/svg" data-fui-icon="true">
  <path
    d="M18.25 13.0004C18.6642 13.0004 19 13.3362 19 13.7504V14.7504C18.9998 17.0974 17.0971 19.0004 14.75 19.0004H5.25C2.90292 19.0004 1.00021 17.0974 1 14.7504V13.7504C1 13.3362 1.33579 13.0004 1.75 13.0004C2.16421 13.0004 2.5 13.3362 2.5 13.7504V14.7504C2.50021 16.269 3.73135 17.5004 5.25 17.5004H14.75C16.2687 17.5004 17.4998 16.269 17.5 14.7504V13.7504C17.5 13.3362 17.8358 13.0004 18.25 13.0004ZM12.7197 1.47012C13.0126 1.17723 13.4874 1.17723 13.7803 1.47012L16.5303 4.22012C16.823 4.51303 16.8231 4.98784 16.5303 5.28067L13.7803 8.03067C13.4874 8.3233 13.0126 8.3233 12.7197 8.03067C12.4269 7.73784 12.427 7.26303 12.7197 6.97012L14.1895 5.5004H11.75C10.2312 5.5004 9 6.73161 9 8.2504V13.2504C8.99978 13.6644 8.66408 14.0004 8.25 14.0004C7.83592 14.0004 7.50022 13.6644 7.5 13.2504V8.2504C7.5 5.90319 9.40279 4.0004 11.75 4.0004H14.1895L12.7197 2.53067C12.4269 2.23784 12.427 1.76303 12.7197 1.47012Z"
    fill="currentColor"
  />
</svg>

<svg xmlns="http://www.w3.org/2000/svg" width="20" height="20" fill="none" data-fui-icon="true" viewBox="0 0 20 20"><path fill="currentColor" d="M18.25 13a.75.75 0 0 1 .75.75v1A4.25 4.25 0 0 1 14.75 19h-9.5A4.25 4.25 0 0 1 1 14.75v-1a.75.75 0 0 1 1.5 0v1a2.75 2.75 0 0 0 2.75 2.75h9.5a2.75 2.75 0 0 0 2.75-2.75v-1a.75.75 0 0 1 .75-.75M12.72 1.47a.75.75 0 0 1 1.06 0l2.75 2.75a.75.75 0 0 1 0 1.06l-2.75 2.75a.75.75 0 0 1-1.06-1.06l1.47-1.47h-2.44A2.75 2.75 0 0 0 9 8.25v5a.75.75 0 0 1-1.5 0v-5A4.25 4.25 0 0 1 11.75 4h2.44l-1.47-1.47a.75.75 0 0 1 0-1.06"/></svg>
